X:7
T:Walzer (Siblingen)  D&G (tinwhistle in D) solo
T:wz05087 (Hanny Christen)
%%MIDI program 72   % 111 /74 / 79=whistle
M:3/4
L:1/4
K:D transpose=12
"D"d2d/2d/2 | ddd | dfa | d2z | d a/2a/2 a/2a/2 | ^e/2f/2 g/2f/2 =e/2d/2 | "A7"(f3 | e)zz | A2A/2A/2 | 
AAA | Ace | A3 | c2d | e/2d/2 c/2B/2 e/2f/2 | "D"g2f/2e/2 | d2z| "Dm"d3 | dd/2c/2 d/2e/2 | =f>ed | 
d2z | =f3 | =ff/2e/2 f/2g/2 | a>g =f | =f2z | "D"{/B}Az^G | "A7"=G2E | "D"{/B}Az^G | A2D | "A7"B/2A/2CC | 
c/2A/2cc | "D"(d3 | d)zz || "D"AzB | A/2B/2 c/2d/2 e/2f/2 | "A7"g>^de | A2z | "D"g/2f/2AA | d3 | "A7"f/2e/2cc | 
"D"d2z | AzB | A/2B/2 c/2d/2 e/2f/2 | "A7"g>^de | A2z | "D"B/2A/2DD | B/2A/2DD | "A7"B/2A/2CC | "D"Dzz || [K:G]
|: "G"B2d | zGA | B2d | zde | "D7"d2c | zcd | "G"c2B | zf/2e/2 d/2c/2 | B2d | 
zGA | B2d | zB^c | "Bm"d>^cB | "F#7"^A>B^c |1 "Bm"Bzz | "D7"c3 :|2 "Bm"B>BB | BzA/2B/2 || 
|: "D7"c2B | A/2A/2AB | "G"G3 | zz/2B/2 A/2G/2 | "D7"Fz/2"_*"A/2 D/2F/2 | (A3 | "G"G)z/2G/2 B/2d/2 | g3 | "D7"a2g | 
f/2f/2 fd | "G"g3 | zdd | ^c3 | "G/D"dc/2B/2 A/2G/2 | "D7"B>c A/2B/2 |1 "G"GzA/2B/2 :|2 "G"Gzz |] 
W:
W:for tin whistle TABs go to: 
W:http://www.mandolintab.net/abcconverter.php
W:" Tablatur: Whistle - key: D "
W:a fingering chart (advanced) you can download from:
W:http://fullbodyburn.com/wp-content/uploads/2011/07/01-D1.jpg
% June 15, 2016
%%MIDI program 21

